X:353
M:C|
L:1/8
K:B_
gBaB bBAB|GBFB EBDB|CecA ~B4:|
|:fBAB gBAB|gaba g^fgf|edc^B cBcd|edec _BAGF|Bcde fBAB|
gBaB bBAB|GBFB EBDB|CecA ~B4:|

